!!!OTL: "Entschuldigung" 'N MONTAG HAT'S G'REGNET
!!!ARE: Europa, Mitteleuropa, Oesterreich
!!!SCT: Z1270
!!!YEM: Copyright 1995, estate of Helmut Schaffrath.
**kern
*ICvox
*Ivox
*M3/4
*k[f#]
*G:
{4d
=1
8d
8b
4b
8a
8g
=2
8g
8f#
8f#
8e}
{4f#
=3
8f#
8cc
4cc
8b
8a
=4
8a
8g}
{8g
8f#
4g
=5
8g
8dd
4dd
8cc
8b
=6
8b
8a
8a
8g#
4a}
=7
{8a
8ee
4ee
8dd
8cc
=8
2b}
==
!!!AGN: Natur und Welt
!!!ONB: ESAC (Essen Associative Code) Database: ZUCCAL
!!!AMT: simple triple
!!!AIN: vox
!!!EED: Helmut Schaffrath
!!!EEV: 1.0
*-
